!!!COM: Bach, Johann Sebastian
!!!OPR: Joh. Seb. Bachs vierstimmige Choralgesänge
!!!XEN: Four-part Chorales
!!!OTL: Chorale 178. Wenn wir in höchsten Nöten sein
!!!SCT: BWV 431
!!!SCA: Thematisch-systematisches Verzeichnis der musikalischen Werke Johann Sebastian Bach: Bach-Werke-Verzeichnis (Schmieder)
!!!YOR: Bach Gesellschaft Edition xxxix
!!!ENC: Steven Rasmussen
!!!CDT: 1685/3//-1750/7/28/
!!!OCY: Deutschland
!!!YEC: Copyright (c) 1994, 2000 Center for Computer Assisted Research in the Humanities
!!!YEM: Rights to all derivative editions reserved
!!!YEN: United States of America
**kern	**silbe	**kern	**silbe	**kern	**silbe	**kern	**silbe
*I:[BASSO]	*I:[BASSO]	*I:[TENORE]	*I:[TENORE]	*I:[ALTO]	*I:[ALTO]	*I:[SOPRANO]	*I:[SOPRANO]
*clefF4	*	*clefGv2	*	*clefG2	*	*clefG2	*
*k[b-]	*	*k[b-]	*	*k[b-]	*	*k[b-]	*
*F:	*	*F:	*	*F:	*	*F:	*
*M4/4	*	*M4/4	*	*M4/4	*	*M4/4	*
8FL	.	8AL	.	4c	.	4f	Wenn
8EJ	.	8GJ	.	.	.	.	.
=1	=1	=1	=1	=1	=1	=1	=1
4D	.	4F	.	8cL	.	4f	wir
.	.	.	.	8BnJ	.	.	.
8EL	.	8cL	.	4c	.	4g	in
8CJ	.	8B-J	.	.	.	.	.
4F	höch-	8AL	höch-	8cL	.	4a	höch-
.	.	8B-J	.	8dJ	.	.	.
4C	-sten	4c	.	4e	.	8gL	-sten
.	.	.	.	.	.	8aJ	.
=2	=2	=2	=2	=2	=2	=2	=2
8DL	Nö-	8FL	.	8fL	Nö-	4b-	Nö-
8EJ	.	8cJ	.	[8gJ	.	.	.
4F	.	4c	-sten	8gL]	.	4a	.
.	.	.	.	[8fJ	.	.	.
4BB-	.	8dL	Nö-	8fL]	.	4.g	.
.	.	8B-J	.	16eL	.	.	.
.	.	.	.	16dJJ	.	.	.
4C	-ten	8GL	-ten	4e	-ten	.	.
.	.	16cL	.	.	.	8g	-ten
.	.	16B-JJ	.	.	.	.	.
=3	=3	=3	=3	=3	=3	=3	=3
2FF;	.	2A;	.	2c;	.	2f;	sein
4r	.	4r	.	4r	.	4r	.
8FL	.	4c	.	4f	.	4a	und
8E-J	.	.	.	.	.	.	.
=4	=4	=4	=4	=4	=4	=4	=4
8DL	.	8dL	.	8fL	.	4b-	wis-
8EJ	.	8cJ	.	8gJ	.	.	.
4F	.	4c	.	8gL	.	4a	-sen
.	.	.	.	8fJ	.	.	.
8BBnL	.	(8d	.	8fL	.	4g	nicht,
8CJ	.	4c)	.	8eJ	.	.	.
4D	.	.	.	4d	.	4f	wo
.	.	8Bn	.	.	.	.	.
=5	=5	=5	=5	=5	=5	=5	=5
8CL	.	4c	.	4G	.	4e	aus
8BB-J	.	.	.	.	.	.	.
8AAL	.	4F	.	4c	.	4f	und
8FFJ	.	.	.	.	.	.	.
4C;	.	4E;	.	4c;	.	4g;	ein,
4AA	.	4A	.	8eL	.	4cc	und
.	.	.	.	8f#J	.	.	.
=6	=6	=6	=6	=6	=6	=6	=6
4GG	.	8dL	.	8gL	.	4b-	fin-
.	.	8c#J	.	8eJ	.	.	.
8DL	.	4d	.	8fL	.	4a	-den
8CJ	.	.	.	8eJ	.	.	.
4BBn	.	4G	.	4.d	.	8gL	we-
.	.	.	.	.	.	8fJ	.
4C	.	4G	.	.	.	4e	-der
.	.	.	.	8c	.	.	.
=7	=7	=7	=7	=7	=7	=7	=7
4FF	.	4A	.	8cL	.	4f	Hülf'
.	.	.	.	16dL	.	.	.
.	.	.	.	16cJJ	.	.	.
4GG	.	8GL	.	4Bn	.	4d	noch
.	.	8FJ	.	.	.	.	.
4C;	.	4E;	.	4G;	.	4c;	Rat,
4FF	.	4c	.	8fL	.	4a	ob
.	.	.	.	8e-J	.	.	.
=8	=8	=8	=8	=8	=8	=8	=8
4GG	.	4B-	.	8dL	.	4b-	wir
.	.	.	.	8eJ	.	.	.
8AAL	.	4c	.	4f	.	4a	gleich
8BB-J	.	.	.	.	.	.	.
4C	.	8.cL	.	8fL	.	4g	sor-
.	.	.	.	8eJ	.	.	.
.	.	16B-Jk	.	.	.	.	.
4D	.	8AL	.	8eL	.	4f	-gen
.	.	8B-J	.	16dL	.	.	.
.	.	.	.	16eJJ	.	.	.
=9	=9	=9	=9	=9	=9	=9	=9
8AAL	.	4c	.	4.f	.	4a	früh
8BB-J	.	.	.	.	.	.	.
4C	.	8.cL	.	.	.	4g	und
.	.	.	.	8e	.	.	.
.	.	16B-Jk	.	.	.	.	.
4FF;	.	4A;	.	4c;	.	4f;	spat.
==|!	==|!	==|!	==|!	==|!	==|!	==|!	==|!
*-	*-	*-	*-	*-	*-	*-	*-
!!!RWG: Key is interpreted using the Humdrum key tool.
!!!URL-pdf: https://s9.imslp.org/files/imglnks/usimg/6/6b/IMSLP24489-PMLP09471-CCARH_Bach_Chorales.pdf#page=123 Musedata edition
!!!URL-pdf: https://s9.imslp.org/files/imglnks/usimg/7/7a/IMSLP04155-Bach_-_BGA_253-438.pdf#page=98 	Bach-Gesellschaft Ausgabe, Band 39 (pp.175-276) Leipzig: Breitkopf und Härtel, 1892. Plate B.W. XXXIX.
!!!END: 1994/08/08
!!!EMD: Converted from MuseData to Humdrum Dec 19, 2000, by Andreas Kornstaedt using muse2kern.
!!!EED: Craig Stuart Sapp
!!!EEV: 2024/03/31
!!!filter-keyboard: extract -i kern | satb2gs
!!!title: @{OTL} (@{SCT})
